X:1
T:Balmoral Highlanders, The
R:Pipe March
C:Angus MacKay
M:2/4
L:1/16
K:Amix
ec|Aece Aece|eAfA {f}e2dB|GdBd GdBd|GABc dBec|
Aece Aece|eAfA {f}e2dB|BdGB gfed|{d}[c2E2][A2E2][A2E2C2]||
ed|ce{g}a2 ce{g}a2|ce{g}af {f}e2dc|B<Bg2 B<Bg2|B<Bg2 agfd|
eeaf geaf|gefd eacA|BdGB gfed|{d}c2A2[A2E2]||
